svgs/regular/headphones.svg

<svg xmlns="http://www.w3.org/2000/svg" viewBox="0 0 512 512"><!--! Font Awesome Pro 6.6.0 by @fontawesome - https://fontawesome.com License - https://fontawesome.com/license (Commercial License) Copyright 2024 Fonticons, Inc. --><path d="M49.6 262C62.4 159.4 149.9 80 256 80s193.6 79.4 206.4 182c-9.4-3.9-19.6-6-30.4-6c-26.5 0-48 21.5-48 48l0 128c0 26.5 21.5 48 48 48c44.2 0 80-35.8 80-80l0-32 0-32 0-48C512 146.6 397.4 32 256 32S0 146.6 0 288l0 48 0 32 0 32c0 44.2 35.8 80 80 80c26.5 0 48-21.5 48-48l0-128c0-26.5-21.5-48-48-48c-10.8 0-21 2.1-30.4 6zM48 336c0-17.7 14.3-32 32-32l0 128c-17.7 0-32-14.3-32-32l0-32 0-32zm416 0l0 32 0 32c0 17.7-14.3 32-32 32l0-128c17.7 0 32 14.3 32 32z"/></svg>

<svg xmlns="http://www.w3.org/2000/svg" viewBox="0 0 512 512"><!--! Font Awesome Pro 6.4.0 by @fontawesome - https://fontawesome.com License - https://fontawesome.com/license (Commercial License) Copyright 2023 Fonticons, Inc. --><path d="M49.6 262C62.4 159.4 149.9 80 256 80s193.6 79.4 206.4 182c-9.4-3.9-19.6-6-30.4-6c-26.5 0-48 21.5-48 48V432c0 26.5 21.5 48 48 48c44.2 0 80-35.8 80-80V368 336 288C512 146.6 397.4 32 256 32S0 146.6 0 288v48 32 32c0 44.2 35.8 80 80 80c26.5 0 48-21.5 48-48V304c0-26.5-21.5-48-48-48c-10.8 0-21 2.1-30.4 6zM48 336c0-17.7 14.3-32 32-32V432c-17.7 0-32-14.3-32-32V368 336zm416 0v32 32c0 17.7-14.3 32-32 32V304c17.7 0 32 14.3 32 32z"/></svg>
